images/decorative/hero/cloud.svg

<svg width="91" height="62" viewBox="0 0 91 62" fill="none" xmlns="http://www.w3.org/2000/svg">
<path d="M87.3826 37.2221C86.011 46.1938 71.2727 50.1967 65.5228 43.2038C64.2975 41.7131 61.8403 43.6509 62.868 45.2648C63.2013 45.7902 63.5768 46.2482 63.9747 46.6736C66.4109 53.6847 55.566 58.5623 50.1073 58.4452C42.8172 58.2913 37.6181 52.6532 36.7999 45.6088C36.7604 45.2757 36.6431 44.9958 36.4824 44.7612L36.5258 44.5528C36.7353 43.0981 34.6957 42.4265 34.2702 43.9281L34.2043 44.1364C33.7247 44.3726 33.3768 44.855 33.3953 45.6088C33.4019 45.8291 33.4335 46.0398 33.448 46.257C30.718 52.8464 24.7797 57.6996 17.1905 56.7835C7.62237 55.6281 3.03987 43.6069 12.9216 38.6718C14.4408 37.9117 13.3749 35.4921 11.7806 35.946C6.07686 37.564 1.05825 31.3207 5.76987 25.7448C8.48801 22.5267 13.3301 22.9211 16.8743 24.0137C17.8809 24.3241 18.3263 22.9474 17.5516 22.3941C17.3961 22.2827 17.2301 22.1982 17.0706 22.0956C17.4027 21.7562 17.4448 21.1832 16.9112 20.8278C9.53416 15.903 12.803 6.57342 21.0392 5.32371C27.1434 4.3967 32.9605 7.365 35.3585 13.0845C35.651 13.7808 36.236 13.8643 36.7446 13.628C37.1148 14.5078 38.6998 14.5326 38.9844 13.441C41.5537 3.58748 54.5976 0.78232 62.6532 5.4724C70.6706 10.1401 71.697 20.4127 66.5953 27.611C65.5716 29.054 67.8563 30.8088 69.0328 29.5037L69.2463 29.2317C69.4887 29.228 69.7285 29.1586 69.9301 28.9892C76.9343 23.0309 88.9624 26.8856 87.3826 37.2221ZM72.2214 24.2209C75.2966 15.8699 71.3083 5.68475 62.839 1.78387C54.1325 -2.22326 40.298 0.477254 37.2268 10.324C34.5047 2.11135 21.665 -0.429993 14.9098 3.80514C9.52889 7.17799 7.31671 16.1523 11.7134 20.3066C6.39705 19.8822 0.988432 23.0002 0.100392 29.1058C-0.662479 34.3584 3.02934 38.5163 7.54201 39.335C2.74211 45.2213 4.13214 54.3546 11.9308 58.0198C20.0984 61.8569 29.9116 58.0436 34.3281 50.6647C36.9514 58.1933 44.7883 63.045 53.0442 61.8077C58.9297 60.9284 67.2462 55.2541 67.1184 48.9247C70.7048 50.5429 75.2267 50.2548 79.0648 49.4035C85.4511 47.9896 90.3353 43.7343 90.9453 36.9101C91.8887 26.3588 80.4272 19.7718 72.2214 24.2209Z" fill="#FDFAF5"/>
</svg>

<svg width="91" height="62" fill="none" xmlns="http://www.w3.org/2000/svg"><path d="M87.383 37.222c-1.372 8.972-16.11 12.975-21.86 5.982-1.225-1.49-3.683.447-2.655 2.06.333.526.709.984 1.107 1.41 2.436 7.01-8.409 11.888-13.868 11.771-7.29-.154-12.489-5.792-13.307-12.836a1.87 1.87 0 0 0-.318-.848l.044-.208c.21-1.455-1.83-2.127-2.256-.625l-.066.208c-.48.237-.827.719-.809 1.473.007.22.038.43.053.648-2.73 6.59-8.668 11.443-16.258 10.526-9.568-1.155-14.15-13.176-4.268-18.111 1.519-.76.453-3.18-1.141-2.726-5.704 1.618-10.723-4.625-6.011-10.201 2.718-3.218 7.56-2.824 11.104-1.731 1.007.31 1.452-1.067.678-1.62-.156-.111-.322-.196-.481-.298.332-.34.374-.913-.16-1.268-7.377-4.925-4.108-14.255 4.128-15.504 6.104-.927 11.922 2.041 14.32 7.76.292.697.877.78 1.386.544.37.88 1.955.905 2.24-.187C41.553 3.587 54.597.782 62.652 5.472c8.018 4.668 9.044 14.94 3.942 22.139-1.023 1.443 1.261 3.198 2.438 1.893l.213-.272c.243-.004.483-.073.684-.243 7.004-5.958 19.032-2.103 17.453 8.233ZM72.22 24.221c3.076-8.351-.913-18.536-9.382-22.437-8.706-4.007-22.541-1.307-25.612 8.54C34.505 2.111 21.665-.43 14.91 3.805c-5.381 3.373-7.593 12.347-3.197 16.502C6.397 19.882.988 23 .1 29.106c-.762 5.252 2.93 9.41 7.442 10.229-4.8 5.886-3.41 15.02 4.389 18.685 8.167 3.837 17.98.024 22.397-7.355 2.623 7.528 10.46 12.38 18.716 11.143 5.886-.88 14.202-6.554 14.074-12.883 3.587 1.618 8.109 1.33 11.947.479 6.386-1.414 11.27-5.67 11.88-12.494.944-10.551-10.518-17.138-18.724-12.69Z" fill="#FDFAF5"/></svg>
